src/qt/btcu/res/img/ic-transaction-stake-hot.svg

<svg width="24" height="24" viewBox="0 0 24 24" fill="none" xmlns="http://www.w3.org/2000/svg">
<path d="M22.1999 5.80002H18.8999C18.9999 5.30002 18.9999 4.80002 18.7999 4.30002C18.4999 3.60002 17.9999 3.00002 17.1999 2.60002C16.3999 2.20002 15.4999 2.10002 14.6999 2.40002C13.8999 2.70002 13.1999 3.20002 12.7999 3.90002L12.0999 5.00002L11.3999 3.80002C10.9999 3.20002 10.2999 2.70002 9.4999 2.40002C8.5999 2.10002 7.6999 2.20002 6.9999 2.60002C5.5999 3.20002 4.9999 4.50002 5.1999 5.80002H1.8999V10.2H3.7999L3.8999 22H20.1999L20.0999 10.2H22.1999V5.80002ZM14.4999 4.70002C14.6999 4.40002 14.9999 4.20002 15.2999 4.10002C15.5999 4.00002 15.9999 4.10002 16.2999 4.20002C16.5999 4.40002 16.8999 4.60002 16.9999 4.90002C16.9999 5.20002 16.9999 5.50002 16.8999 5.80002H13.9999L14.4999 4.70002ZM7.8999 4.20002C8.0999 4.10002 8.1999 4.10002 8.3999 4.10002C8.4999 4.10002 8.6999 4.10002 8.7999 4.20002C9.0999 4.30002 9.3999 4.50002 9.5999 4.80002L10.1999 5.80002H7.2999C6.9999 5.20002 7.2999 4.50002 7.8999 4.20002ZM18.1999 19.7H5.8999V10.1H18.1999V19.7V19.7ZM20.5999 8.80002H3.5999V7.10002H20.5999V8.80002Z" fill="#262642"/>
<path d="M13.7 13.1999C12.8 12.0999 11.7 11.2999 11.2 10.8999C10.8 10.5999 10.8 10.8999 10.8 10.9999C10.9 11.4999 11.1 12.4999 9.70004 14.0999C8.00004 16.3999 9.20004 17.9999 10.4 18.7999C10.9 19.1999 11.6 19.0999 11.6 19.0999C11.7 19.0999 11.9 19.0999 11.9 18.9999C11.2 18.5999 9.60004 17.3999 11.8 14.1999C11.8 14.1999 11.7 15.3999 12.2 15.7999C12.5 15.8999 13 15.3999 13 15.3999C13 15.3999 14.1 17.6999 12.5 18.6999C12.4 18.6999 12.4 18.7999 12.2 18.7999C12.3 18.8999 12.5 18.8999 12.5 18.8999C13.3 18.8999 14.2 18.3999 14.8 17.1999C15.6 15.8999 14.8 14.2999 13.7 13.1999Z" fill="#262642"/>
</svg>

<?xml version="1.0" encoding="utf-8"?>
<!-- Generator: Adobe Illustrator 23.1.1, SVG Export Plug-In . SVG Version: 6.00 Build 0)  -->
<svg version="1.1" id="ic-transaction-staked" xmlns="http://www.w3.org/2000/svg" xmlns:xlink="http://www.w3.org/1999/xlink"
	 x="0px" y="0px" viewBox="0 0 24 24" style="enable-background:new 0 0 24 24;" xml:space="preserve">
<style type="text/css">
	.st0{fill:#FFFFFF;}
	.st1{fill:none;}
	.st2{fill:#707070;}
</style>
<g>
	<path class="st0" d="M18.3,13L18.3,13L18.3,13z"/>
</g>
<path class="st1" d="M10.2,5.8l-0.6-1C9.5,4.5,9.2,4.2,8.9,4.1c-0.1,0-0.3-0.1-0.4-0.1c-0.2,0-0.4,0-0.5,0.1C7.3,4.5,7,5.2,7.3,5.8
	H10.2z"/>
<path class="st1" d="M16.9,4.9c-0.1-0.3-0.4-0.6-0.7-0.7C16,4.1,15.6,4,15.3,4.1c-0.3,0.1-0.6,0.3-0.8,0.6l-0.6,1h2.9
	C17,5.5,17,5.2,16.9,4.9z"/>
<rect x="5.9" y="10.1" class="st1" width="12.3" height="9.6"/>
<rect x="3.6" y="7.1" class="st1" width="17" height="1.6"/>
<g>
	<path class="st1" d="M10.2,5.8l-0.6-1C9.5,4.5,9.2,4.2,8.9,4.1c-0.1,0-0.3-0.1-0.4-0.1c-0.2,0-0.4,0-0.5,0.1C7.3,4.5,7,5.2,7.3,5.8
		H10.2z"/>
	<path class="st1" d="M16.9,4.9c-0.1-0.3-0.4-0.6-0.7-0.7C16,4.1,15.6,4,15.3,4.1c-0.3,0.1-0.6,0.3-0.8,0.6l-0.6,1h2.9
		C17,5.5,17,5.2,16.9,4.9z"/>
	<rect x="5.9" y="10.1" class="st1" width="12.3" height="9.6"/>
	<path class="st2" d="M22.2,5.8h-3.3C19,5.3,19,4.8,18.8,4.3C18.5,3.6,18,3,17.2,2.6c-0.8-0.4-1.7-0.5-2.5-0.2
		c-0.8,0.3-1.5,0.8-1.9,1.5L12.1,5l-0.7-1.2C11,3.2,10.3,2.7,9.5,2.4C8.6,2.1,7.7,2.2,7,2.6C5.6,3.2,5,4.5,5.2,5.8H1.9v4.4h1.9
		l0.1,11.8h16.3l-0.1-11.8h2.1V5.8z M14.5,4.7c0.2-0.3,0.5-0.5,0.8-0.6C15.6,4,16,4.1,16.3,4.2c0.3,0.2,0.6,0.4,0.7,0.7
		C17,5.2,17,5.5,16.9,5.8h-2.9L14.5,4.7z M7.9,4.2c0.2-0.1,0.3-0.1,0.5-0.1c0.1,0,0.3,0,0.4,0.1c0.3,0.1,0.6,0.3,0.8,0.6l0.6,1H7.3
		C7,5.2,7.3,4.5,7.9,4.2z M18.2,19.7H5.9v-9.6h12.3V19.7z M20.6,8.8h-17V7.1h17V8.8z"/>
</g>
<path class="st2" d="M13.7,13.2c-0.9-1.1-2-1.9-2.5-2.3c-0.4-0.3-0.4,0-0.4,0.1c0.1,0.5,0.3,1.5-1.1,3.1C8,16.4,9.2,18,10.4,18.8
	c0.5,0.4,1.2,0.3,1.2,0.3c0.1,0,0.3,0,0.3-0.1c-0.7-0.4-2.3-1.6-0.1-4.8c0,0-0.1,1.2,0.4,1.6c0.3,0.1,0.8-0.4,0.8-0.4
	s1.1,2.3-0.5,3.3c-0.1,0-0.1,0.1-0.3,0.1c0.1,0.1,0.3,0.1,0.3,0.1c0.8,0,1.7-0.5,2.3-1.7C15.6,15.9,14.8,14.3,13.7,13.2z"/>
</svg>
